build/fonts/cisco/pxf.svg

<?xml version="1.0" encoding="UTF-8" standalone="no"?>
<svg
   xmlns:dc="http://purl.org/dc/elements/1.1/"
   xmlns:cc="http://creativecommons.org/ns#"
   xmlns:rdf="http://www.w3.org/1999/02/22-rdf-syntax-ns#"
   xmlns:svg="http://www.w3.org/2000/svg"
   xmlns="http://www.w3.org/2000/svg"
   viewBox="0 0 38.75 51.25"
   height="51.25"
   width="38.75"
   xml:space="preserve"
   version="1.1"
   id="svg2"><metadata
     id="metadata8"><rdf:RDF><cc:Work
         rdf:about=""><dc:format>image/svg+xml</dc:format><dc:type
           rdf:resource="http://purl.org/dc/dcmitype/StillImage" /></cc:Work></rdf:RDF></metadata><defs
     id="defs6"><clipPath
       id="clipPath18"
       clipPathUnits="userSpaceOnUse"><path
         id="path20"
         d="M 0,9 0,406 310,406 310,9 0,9 Z" /></clipPath></defs><g
     transform="matrix(1.25,0,0,-1.25,0,51.25)"
     id="g10"><g
       transform="scale(0.1,0.1)"
       id="g12"><g
         id="g14"><g
           clip-path="url(#clipPath18)"
           id="g16"><path
             id="path22"
             style="fill:#026c9b;fill-opacity:1;fill-rule:nonzero;stroke:none"
             d="m 6.44922,14.7852 268.281,0 0,244.262 -268.281,0 0,-244.262 z" /><path
             id="path24"
             style="fill:none;stroke:#ffffff;stroke-width:4;stroke-linecap:butt;stroke-linejoin:miter;stroke-miterlimit:4;stroke-dasharray:none;stroke-opacity:1"
             d="m 6.44922,14.7852 268.281,0 0,244.262 -268.281,0 0,-244.262 z" /><path
             id="path26"
             style="fill:#026c9b;fill-opacity:1;fill-rule:nonzero;stroke:none"
             d="m 308.59,48.3359 0,244.2621 -33.86,-33.551 0,-244.2618 33.86,33.5507" /><path
             id="path28"
             style="fill:none;stroke:#ffffff;stroke-width:4;stroke-linecap:butt;stroke-linejoin:miter;stroke-miterlimit:4;stroke-dasharray:none;stroke-opacity:1"
             d="m 308.59,48.3359 0,244.2621 -33.86,-33.551 0,-244.2618 33.86,33.5507 z" /><path
             id="path30"
             style="fill:#026c9b;fill-opacity:1;fill-rule:nonzero;stroke:none"
             d="m 55.5117,401.266 -49.06248,-33.547 268.28078,0 33.86,33.547 -253.0783,0" /><path
             id="path32"
             style="fill:none;stroke:#ffffff;stroke-width:4;stroke-linecap:butt;stroke-linejoin:miter;stroke-miterlimit:4;stroke-dasharray:none;stroke-opacity:1"
             d="m 55.5117,401.266 -49.06248,-33.547 268.28078,0 33.86,33.547 -253.0783,0 z" /><path
             id="path34"
             style="fill:#026c9b;fill-opacity:1;fill-rule:nonzero;stroke:none"
             d="m 6.44922,259.047 268.281,0 0,108.672 -268.281,0 0,-108.672 z" /><path
             id="path36"
             style="fill:none;stroke:#ffffff;stroke-width:4;stroke-linecap:butt;stroke-linejoin:miter;stroke-miterlimit:4;stroke-dasharray:none;stroke-opacity:1"
             d="m 6.44922,259.047 268.281,0 0,108.672 -268.281,0 0,-108.672 z" /><path
             id="path38"
             style="fill:#026c9b;fill-opacity:1;fill-rule:nonzero;stroke:none"
             d="m 308.59,292.598 0,108.668 -33.86,-33.547 0,-108.672 33.86,33.551" /><path
             id="path40"
             style="fill:none;stroke:#ffffff;stroke-width:4;stroke-linecap:butt;stroke-linejoin:miter;stroke-miterlimit:4;stroke-dasharray:none;stroke-opacity:1"
             d="m 308.59,292.598 0,108.668 -33.86,-33.547 0,-108.672 33.86,33.551 z" /><path
             id="path42"
             style="fill:none;stroke:#ffffff;stroke-width:4;stroke-linecap:butt;stroke-linejoin:miter;stroke-miterlimit:4;stroke-dasharray:none;stroke-opacity:1"
             d="m 274.73,259.047 -268.28078,0" /><path
             id="path44"
             style="fill:#026c9b;fill-opacity:1;fill-rule:nonzero;stroke:none"
             d="m 274.73,259.047 33.86,33.551" /><path
             id="path46"
             style="fill:none;stroke:#ffffff;stroke-width:4;stroke-linecap:butt;stroke-linejoin:miter;stroke-miterlimit:4;stroke-dasharray:none;stroke-opacity:1"
             d="m 274.73,259.047 33.86,33.551" /><path
             id="path48"
             style="fill:#000000;fill-opacity:1;fill-rule:nonzero;stroke:none"
             d="m 56.0508,336.387 43.2383,0 0,22.5 -43.2383,0 0,-22.5 z" /><path
             id="path50"
             style="fill:#000000;fill-opacity:1;fill-rule:nonzero;stroke:none"
             d="m 198.199,336.387 43.2422,0 0,22.5 -43.2422,0 0,-22.5 z" /><path
             id="path52"
             style="fill:#000000;fill-opacity:1;fill-rule:nonzero;stroke:none"
             d="m 56.0508,280.098 43.2383,0 0,22.5 -43.2383,0 0,-22.5 z" /><path
             id="path54"
             style="fill:#000000;fill-opacity:1;fill-rule:nonzero;stroke:none"
             d="m 198.199,280.098 43.2422,0 0,22.5 -43.2422,0 0,-22.5 z" /><path
             id="path56"
             style="fill:none;stroke:#000000;stroke-width:4;stroke-linecap:butt;stroke-linejoin:miter;stroke-miterlimit:4;stroke-dasharray:none;stroke-opacity:1"
             d="m 85.3906,345.488 132.8904,0" /><path
             id="path58"
             style="fill:none;stroke:#000000;stroke-width:4;stroke-linecap:butt;stroke-linejoin:miter;stroke-miterlimit:4;stroke-dasharray:none;stroke-opacity:1"
             d="m 85.3906,289.156 132.8904,0" /><path
             id="path60"
             style="fill:none;stroke:#000000;stroke-width:4;stroke-linecap:butt;stroke-linejoin:miter;stroke-miterlimit:4;stroke-dasharray:none;stroke-opacity:1"
             d="M 77.6992,289.156 218.281,345.488" /><path
             id="path62"
             style="fill:none;stroke:#000000;stroke-width:4;stroke-linecap:butt;stroke-linejoin:miter;stroke-miterlimit:4;stroke-dasharray:none;stroke-opacity:1"
             d="M 77.6992,345.488 218.281,289.156" /><path
             id="path64"
             style="fill:#ffffff;fill-opacity:1;fill-rule:nonzero;stroke:none"
             d="m 50.2305,330.605 43.2813,0 0,22.5 -43.2813,0 0,-22.5 z" /><path
             id="path66"
             style="fill:#ffffff;fill-opacity:1;fill-rule:nonzero;stroke:none"
             d="m 192.379,330.605 43.2813,0 0,22.5 -43.2813,0 0,-22.5 z" /><path
             id="path68"
             style="fill:#ffffff;fill-opacity:1;fill-rule:nonzero;stroke:none"
             d="m 50.2305,274.277 43.2813,0 0,22.5391 -43.2813,0 0,-22.5391 z" /><path
             id="path70"
             style="fill:#ffffff;fill-opacity:1;fill-rule:nonzero;stroke:none"
             d="m 192.379,274.277 43.2813,0 0,22.5391 -43.2813,0 0,-22.5391 z" /><path
             id="path72"
             style="fill:none;stroke:#ffffff;stroke-width:4;stroke-linecap:butt;stroke-linejoin:miter;stroke-miterlimit:4;stroke-dasharray:none;stroke-opacity:1"
             d="m 79.6094,341.855 132.8906,0" /><path
             id="path74"
             style="fill:none;stroke:#ffffff;stroke-width:4;stroke-linecap:butt;stroke-linejoin:miter;stroke-miterlimit:4;stroke-dasharray:none;stroke-opacity:1"
             d="m 79.6094,285.566 132.8906,0" /><path
             id="path76"
             style="fill:none;stroke:#ffffff;stroke-width:4;stroke-linecap:butt;stroke-linejoin:miter;stroke-miterlimit:4;stroke-dasharray:none;stroke-opacity:1"
             d="M 71.8789,285.566 212.5,341.855" /><path
             id="path78"
             style="fill:none;stroke:#ffffff;stroke-width:4;stroke-linecap:butt;stroke-linejoin:miter;stroke-miterlimit:4;stroke-dasharray:none;stroke-opacity:1"
             d="M 71.8789,341.855 212.5,285.566" /><path
             id="path80"
             style="fill:#ffffff;fill-opacity:1;fill-rule:nonzero;stroke:none"
             d="m 144.301,176.309 0,53.437 9.527,0 -14.058,20.199 -14.032,-20.199 9.532,0 0,-53.437 9.031,0" /><path
             id="path82"
             style="fill:#ffffff;fill-opacity:1;fill-rule:nonzero;stroke:none"
             d="m 101.172,143.848 -56.1329,0 0,9.058 -21.168,-13.359 21.168,-13.391 0,9.063 56.1329,0 0,8.629" /><path
             id="path84"
             style="fill:#ffffff;fill-opacity:1;fill-rule:nonzero;stroke:none"
             d="m 135.27,102.758 0,-53.4416 -9.532,0 14.032,-20.1601 14.058,20.1601 -9.527,0 0,53.4416 -9.031,0" /><path
             id="path86"
             style="fill:#ffffff;fill-opacity:1;fill-rule:nonzero;stroke:none"
             d="m 178.398,135.219 56.133,0 0,-9.063 21.168,13.391 -21.168,13.359 0,-9.058 -56.133,0 0,-8.629" /><path
             id="path88"
             style="fill:#026c9b;fill-opacity:1;fill-rule:nonzero;stroke:none"
             d="m 192.539,84.668 -105.039,0 0.0781,108.91 105.0819,0 -0.121,-108.91" /><path
             id="path90"
             style="fill:none;stroke:#ffffff;stroke-width:4;stroke-linecap:butt;stroke-linejoin:miter;stroke-miterlimit:4;stroke-dasharray:none;stroke-opacity:1"
             d="m 192.539,84.668 -105.039,0 0.0781,108.91 105.0819,0 -0.121,-108.91 z" /><path
             id="path92"
             style="fill:none;stroke:#ffffff;stroke-width:4;stroke-linecap:butt;stroke-linejoin:miter;stroke-miterlimit:4;stroke-dasharray:none;stroke-opacity:1"
             d="m 113.828,194.785 0,-110.4295" /><path
             id="path94"
             style="fill:none;stroke:#ffffff;stroke-width:4;stroke-linecap:butt;stroke-linejoin:miter;stroke-miterlimit:4;stroke-dasharray:none;stroke-opacity:1"
             d="m 139.922,195.098 0,-110.7425" /><path
             id="path96"
             style="fill:none;stroke:#ffffff;stroke-width:4;stroke-linecap:butt;stroke-linejoin:miter;stroke-miterlimit:4;stroke-dasharray:none;stroke-opacity:1"
             d="m 165.98,193.027 0,-107.6911" /><path
             id="path98"
             style="fill:none;stroke:#ffffff;stroke-width:4;stroke-linecap:butt;stroke-linejoin:miter;stroke-miterlimit:4;stroke-dasharray:none;stroke-opacity:1"
             d="m 86.8789,166.469 104.9221,0" /><path
             id="path100"
             style="fill:none;stroke:#ffffff;stroke-width:4;stroke-linecap:butt;stroke-linejoin:miter;stroke-miterlimit:4;stroke-dasharray:none;stroke-opacity:1"
             d="m 86.5195,139.355 104.6095,0" /><path
             id="path102"
             style="fill:none;stroke:#ffffff;stroke-width:4;stroke-linecap:butt;stroke-linejoin:miter;stroke-miterlimit:4;stroke-dasharray:none;stroke-opacity:1"
             d="m 86.5195,112.246 105.2815,0" /></g></g></g></g></svg>

<svg xmlns="http://www.w3.org/2000/svg" viewBox="0 0 38.75 51.25" height="51.25" width="38.75"><defs><clipPath id="a"><path d="M0 9v397h310V9H0z"/></clipPath></defs><g clip-path="url(#a)" transform="matrix(.13 0 0 -.13 0 51.25)"><path d="M6.45 14.785h268.28v244.262H6.45V14.785z" fill="#026c9b"/><path d="M6.45 14.785h268.28v244.262H6.45V14.785z" fill="none" stroke="#fff" stroke-width="4"/><path d="M308.59 48.336v244.262l-33.86-33.551V14.785l33.86 33.55" fill="#026c9b"/><path d="M308.59 48.336v244.262l-33.86-33.551V14.785l33.86 33.55z" fill="none" stroke="#fff" stroke-width="4"/><path d="M55.512 401.266L6.449 367.719H274.73l33.86 33.547H55.512" fill="#026c9b"/><path d="M55.512 401.266L6.449 367.719H274.73l33.86 33.547H55.512z" fill="none" stroke="#fff" stroke-width="4"/><path d="M6.45 259.047h268.28v108.672H6.45V259.047z" fill="#026c9b"/><path d="M6.45 259.047h268.28v108.672H6.45V259.047z" fill="none" stroke="#fff" stroke-width="4"/><path d="M308.59 292.598v108.668l-33.86-33.547V259.047l33.86 33.551" fill="#026c9b"/><path d="M308.59 292.598v108.668l-33.86-33.547V259.047l33.86 33.551zM274.73 259.047H6.45" fill="none" stroke="#fff" stroke-width="4"/><path d="M274.73 259.047l33.86 33.551" fill="#026c9b"/><path d="M274.73 259.047l33.86 33.551" fill="none" stroke="#fff" stroke-width="4"/><path d="M56.05 336.387h43.24v22.5H56.05v-22.5zM198.199 336.387h43.242v22.5H198.2v-22.5zM56.05 280.098h43.24v22.5H56.05v-22.5zM198.199 280.098h43.242v22.5H198.2v-22.5z"/><path d="M85.39 345.488h132.891M85.39 289.156h132.891M77.7 289.156l140.581 56.332M77.7 345.488l140.581-56.332" fill="none" stroke="#000" stroke-width="4"/><path d="M50.23 330.605h43.282v22.5H50.23v-22.5zM192.379 330.605h43.281v22.5H192.38v-22.5zM50.23 274.277h43.282v22.54H50.23v-22.54zM192.379 274.277h43.281v22.54H192.38v-22.54z" fill="#fff"/><path d="M79.61 341.855H212.5M79.61 285.566H212.5M71.879 285.566L212.5 341.855M71.879 341.855L212.5 285.566" fill="none" stroke="#fff" stroke-width="4"/><path d="M144.301 176.309v53.437h9.527l-14.058 20.199-14.032-20.199h9.532v-53.437h9.031M101.172 143.848H45.039v9.058l-21.168-13.359 21.168-13.391v9.063h56.133v8.629M135.27 102.758V49.316h-9.532l14.032-20.16 14.058 20.16h-9.527v53.442h-9.031M178.398 135.219h56.133v-9.063l21.168 13.391-21.168 13.359v-9.058h-56.133v-8.629" fill="#fff"/><path d="M192.539 84.668H87.5l.078 108.91H192.66l-.121-108.91" fill="#026c9b"/><path d="M192.539 84.668H87.5l.078 108.91H192.66l-.121-108.91zM113.828 194.785V84.355M139.922 195.098V84.355M165.98 193.027V85.336M86.879 166.469H191.8M86.52 139.355h104.609M86.52 112.246H191.8" fill="none" stroke="#fff" stroke-width="4"/></g></svg>
